X: 3021
T: Courant
%R: courant
B: Henry Playford "Apollo's Banquet", London 1687 (5th Edition)
F: https://archive.org/details/apollosbanquetco01rugg
Z: 2017 John Chambers <jc:trillian.mit.edu>
N: There's an unrecognizable squiggle before the high a in bar 12. (flat? segno? smudge?)
M: 3/2
L: 1/8
K: Bb
% - - - - - - - - - -
B |\
B3f b2ag f3e | d3c BFBc c3B/c/ |\
d2(cB) f2(ed) e3f | g3f eded c3B |\
A2(GF) c2 cd d3c | c8- c3 :: A |
A3B cGB2 B3A | G6 g2 f3d |\
e2(dc) =e2fg g3f/g/ | a2 f4 f2 b3a |\
g3f/e/ d2e2 c3B | c2 F4 f2 a3g |\
f3e/d/ c2de c3B | B8- HB3 |]
% - - - - - - - - - -

%%sep 1 1 500
%%sep 1 1 500

